!!!OTL: DRAUSSEN AUF GRUENESTER HAID
!!!ARE: Europa, Mitteleuropa, Deutschland, Stuttgart
!!!SCT: Z0300
!!!YEM: Copyright 1995, estate of Helmut Schaffrath.
**kern
*ICvox
*Ivox
*M3/8
*k[b-]
*F:
{8.f
16e
8f
=1
8.g
16f
8g
=2
4.a}
=3
{4.g
=4
8a
8a
16g
16g
=5
8a
8a}
{16g
16g
=6
8a
8a
8g
=7
4f
8r}
=8
{8.f
16e
8f
=9
8.g
16f
8g
=10
4.a}
=11
{4.g
=12
8g
8f
8g
=13
8g
8f
8g
=14
4.a}
=15
{8a
16a
16a
8g
=16
8a
16a
16a
8g}
=17
{8.f
16e
8f
=18
8.g
16f
8g
=19
4.a}
=20
{4.g
=21
8a
8a
16g
16g
=22
8a
8a}
{16g
16g
=23
8a
8a
8g
=24
4f
8r}
==
!!!AGN: Lyrisches Lied, Romanze
!!!ONB: ESAC (Essen Associative Code) Database: ZUCCAL
!!!AMT: simple triple
!!!AIN: vox
!!!EED: Helmut Schaffrath
!!!EEV: 1.0
*-
